img/thp_logo.svg

<svg viewBox="0 0 81 81" xmlns="http://www.w3.org/2000/svg"><path d="m.5.5h80v80h-80z" fill="#f7c04a" stroke="#111"/><path d="m49.28 68.81v-41.45h5.94v2.64a14.25 14.25 0 0 1 2.27-2.16 5.55 5.55 0 0 1 3.37-.84 5.4 5.4 0 0 1 5.14 2.8 8.13 8.13 0 0 1 .76 2.45 25.26 25.26 0 0 1 .23 3.9v11.24a46.61 46.61 0 0 1 -.17 4.71 5.67 5.67 0 0 1 -2.68 4.37 6.27 6.27 0 0 1 -3.38.75 6.16 6.16 0 0 1 -3.11-.78 7.27 7.27 0 0 1 -2.36-2.24h-.11v14.61zm11.81-31.81a5.46 5.46 0 0 0 -.69-2.92 2.45 2.45 0 0 0 -2.22-1.08 2.61 2.61 0 0 0 -2.18 1 4.13 4.13 0 0 0 -.81 2.65v11.43a3.23 3.23 0 0 0 .84 2.3 2.76 2.76 0 0 0 2.12.91 2.42 2.42 0 0 0 2.3-1 4.77 4.77 0 0 0 .61-2.45z" fill="#f7f6f4" stroke="#000"/><path d="m51.32 68.81v-41.45h5.94v2.64a14.25 14.25 0 0 1 2.27-2.16 5.55 5.55 0 0 1 3.37-.84 5.4 5.4 0 0 1 5.18 2.79 7.85 7.85 0 0 1 .76 2.45 25.26 25.26 0 0 1 .23 3.9v11.25a43.76 43.76 0 0 1 -.17 4.71 5.67 5.67 0 0 1 -2.68 4.37 6.27 6.27 0 0 1 -3.38.75 6.16 6.16 0 0 1 -3.11-.78 7.27 7.27 0 0 1 -2.36-2.24h-.11v14.61zm11.82-31.81a5.46 5.46 0 0 0 -.7-2.92 2.45 2.45 0 0 0 -2.22-1.08 2.61 2.61 0 0 0 -2.15 1 4.13 4.13 0 0 0 -.81 2.65v11.43a3.23 3.23 0 0 0 .84 2.3 2.76 2.76 0 0 0 2.12.91 2.42 2.42 0 0 0 2.3-1 4.77 4.77 0 0 0 .62-2.45z" fill="#dd5c49" stroke="#000"/><path d="m53.15 68.81v-41.45h5.94v2.64a14.25 14.25 0 0 1 2.27-2.16 5.55 5.55 0 0 1 3.37-.84 5.41 5.41 0 0 1 5.19 2.79 7.86 7.86 0 0 1 .75 2.45 25.06 25.06 0 0 1 .24 3.9v11.25a43.1 43.1 0 0 1 -.18 4.71 5.67 5.67 0 0 1 -2.68 4.37 7.25 7.25 0 0 1 -6.49 0 7.27 7.27 0 0 1 -2.36-2.27h-.11v14.61zm11.85-31.81a5.46 5.46 0 0 0 -.7-2.92 2.43 2.43 0 0 0 -2.24-1.08 2.63 2.63 0 0 0 -2.16 1 4.13 4.13 0 0 0 -.81 2.65v11.43a3.23 3.23 0 0 0 .84 2.3 2.76 2.76 0 0 0 2.13.91 2.44 2.44 0 0 0 2.3-1 4.87 4.87 0 0 0 .64-2.5z" fill="#0071ed" stroke="#111"/><path d="m27.63 56.87v-41.44h5.93v14.78h.12a8.47 8.47 0 0 1 2.24-2.3 5.81 5.81 0 0 1 3.35-.9 6.85 6.85 0 0 1 2.21.38 5.08 5.08 0 0 1 2 1.25 6.34 6.34 0 0 1 1.4 2.24 9.39 9.39 0 0 1 .52 3.35v22.64h-5.96v-20.43a4 4 0 0 0 -.75-2.56 2.63 2.63 0 0 0 -2.16-.88 2.51 2.51 0 0 0 -2.33 1 5.87 5.87 0 0 0 -.64 3v19.87z" fill="#f7f6f4" stroke="#000"/><path d="m29.67 56.87v-41.44h5.94v14.78h.11a8.47 8.47 0 0 1 2.28-2.3 5.81 5.81 0 0 1 3.35-.9 6.85 6.85 0 0 1 2.21.38 5.08 5.08 0 0 1 2 1.25 6.34 6.34 0 0 1 1.4 2.24 9.39 9.39 0 0 1 .52 3.35v22.64h-6v-20.43a4 4 0 0 0 -.75-2.56 2.63 2.63 0 0 0 -2.16-.88 2.49 2.49 0 0 0 -2.32 1 5.77 5.77 0 0 0 -.64 3v19.87z" fill="#dd5c49" stroke="#000"/><path d="m31.5 56.87v-41.44h5.94v14.78h.11a8.47 8.47 0 0 1 2.24-2.3 5.81 5.81 0 0 1 3.35-.9 6.8 6.8 0 0 1 2.21.38 5.08 5.08 0 0 1 2 1.25 6.21 6.21 0 0 1 1.4 2.24 9.39 9.39 0 0 1 .52 3.35v22.64h-5.95v-20.43a4 4 0 0 0 -.76-2.56 2.61 2.61 0 0 0 -2.15-.88 2.49 2.49 0 0 0 -2.33 1 5.77 5.77 0 0 0 -.64 3v19.87z" fill="#0071ed" stroke="#111"/><path d="m13.29 25.08v-9.65h6.4v9.65h3.95v5h-3.95v17.64a5.47 5.47 0 0 0 .22 1.76 1.72 1.72 0 0 0 .72.94 2.66 2.66 0 0 0 1.22.37c.48 0 1.08.06 1.79.06v6h-2.64a8.62 8.62 0 0 1 -3.67-.69 6.47 6.47 0 0 1 -2.33-1.73 6.81 6.81 0 0 1 -1.3-2.43 9 9 0 0 1 -.41-2.6v-19.3h-3.2v-5z" fill="#f7f6f4" stroke="#000"/><path d="m15.33 25.08v-9.65h6.4v9.65h3.95v5h-3.95v17.64a5.47 5.47 0 0 0 .27 1.76 1.81 1.81 0 0 0 .72.94 2.66 2.66 0 0 0 1.22.37c.48 0 1.08.06 1.79.06v6h-2.68a8.62 8.62 0 0 1 -3.67-.69 6.47 6.47 0 0 1 -2.38-1.73 6.81 6.81 0 0 1 -1.26-2.43 9 9 0 0 1 -.41-2.6v-19.3h-3.19v-5z" fill="#dd5c49" stroke="#000"/><path d="m17.17 25.08v-9.65h6.39v9.65h4v5h-4v17.64a5.47 5.47 0 0 0 .22 1.76 1.81 1.81 0 0 0 .72.94 2.7 2.7 0 0 0 1.22.37c.48 0 1.08.06 1.79.06v6h-2.63a8.62 8.62 0 0 1 -3.67-.69 6.47 6.47 0 0 1 -2.35-1.75 6.81 6.81 0 0 1 -1.29-2.41 8.94 8.94 0 0 1 -.4-2.6v-19.3h-3.17v-5z" fill="#0071ed" stroke="#111"/></svg>

<svg xmlns="http://www.w3.org/2000/svg" viewBox="0 0 81 81"><defs><style>.cls-1{fill:#f7c04a;}.cls-1,.cls-4{stroke:#111;}.cls-2{fill:#f7f6f4;}.cls-2,.cls-3{stroke:#000;}.cls-3{fill:#dd5c49;}.cls-4{fill:#0071ed;}</style></defs><title>Asset 5</title><g id="Layer_2" data-name="Layer 2"><g id="Layer_2-2" data-name="Layer 2"><rect class="cls-1" x="0.5" y="0.5" width="80" height="80"/><path class="cls-2" d="M49.28,68.81V27.36h5.94V30a14.25,14.25,0,0,1,2.27-2.16A5.55,5.55,0,0,1,60.86,27,5.4,5.4,0,0,1,66,29.8a8.13,8.13,0,0,1,.76,2.45,25.26,25.26,0,0,1,.23,3.9V47.39a46.61,46.61,0,0,1-.17,4.71,5.67,5.67,0,0,1-2.68,4.37,6.27,6.27,0,0,1-3.38.75,6.16,6.16,0,0,1-3.11-.78,7.27,7.27,0,0,1-2.36-2.24h-.11V68.81ZM61.09,37a5.46,5.46,0,0,0-.69-2.92A2.45,2.45,0,0,0,58.18,33,2.61,2.61,0,0,0,56,34a4.13,4.13,0,0,0-.81,2.65V48.08a3.23,3.23,0,0,0,.84,2.3,2.76,2.76,0,0,0,2.12.91,2.42,2.42,0,0,0,2.3-1,4.77,4.77,0,0,0,.61-2.45Z"/><path class="cls-3" d="M51.32,68.81V27.36h5.94V30a14.25,14.25,0,0,1,2.27-2.16A5.55,5.55,0,0,1,62.9,27a5.4,5.4,0,0,1,5.18,2.79,7.85,7.85,0,0,1,.76,2.45,25.26,25.26,0,0,1,.23,3.9V47.39a43.76,43.76,0,0,1-.17,4.71,5.67,5.67,0,0,1-2.68,4.37,6.27,6.27,0,0,1-3.38.75,6.16,6.16,0,0,1-3.11-.78,7.27,7.27,0,0,1-2.36-2.24h-.11V68.81ZM63.14,37a5.46,5.46,0,0,0-.7-2.92A2.45,2.45,0,0,0,60.22,33a2.61,2.61,0,0,0-2.15,1,4.13,4.13,0,0,0-.81,2.65V48.08a3.23,3.23,0,0,0,.84,2.3,2.76,2.76,0,0,0,2.12.91,2.42,2.42,0,0,0,2.3-1,4.77,4.77,0,0,0,.62-2.45Z"/><path class="cls-4" d="M53.15,68.81V27.36h5.94V30a14.25,14.25,0,0,1,2.27-2.16A5.55,5.55,0,0,1,64.73,27a5.41,5.41,0,0,1,5.19,2.79,7.86,7.86,0,0,1,.75,2.45,25.06,25.06,0,0,1,.24,3.9V47.39a43.1,43.1,0,0,1-.18,4.71,5.67,5.67,0,0,1-2.68,4.37,7.25,7.25,0,0,1-6.49,0A7.27,7.27,0,0,1,59.2,54.2h-.11V68.81ZM65,37a5.46,5.46,0,0,0-.7-2.92A2.43,2.43,0,0,0,62.06,33a2.63,2.63,0,0,0-2.16,1,4.13,4.13,0,0,0-.81,2.65V48.08a3.23,3.23,0,0,0,.84,2.3,2.76,2.76,0,0,0,2.13.91,2.44,2.44,0,0,0,2.3-1A4.87,4.87,0,0,0,65,47.79Z"/><path class="cls-2" d="M27.63,56.87V15.43h5.93V30.21h.12a8.47,8.47,0,0,1,2.24-2.3,5.81,5.81,0,0,1,3.35-.9,6.85,6.85,0,0,1,2.21.38,5.08,5.08,0,0,1,2,1.25,6.34,6.34,0,0,1,1.4,2.24,9.39,9.39,0,0,1,.52,3.35V56.87H39.44V36.44a4,4,0,0,0-.75-2.56A2.63,2.63,0,0,0,36.53,33a2.51,2.51,0,0,0-2.33,1,5.87,5.87,0,0,0-.64,3V56.87Z"/><path class="cls-3" d="M29.67,56.87V15.43h5.94V30.21h.11A8.47,8.47,0,0,1,38,27.91a5.81,5.81,0,0,1,3.35-.9,6.85,6.85,0,0,1,2.21.38,5.08,5.08,0,0,1,2,1.25,6.34,6.34,0,0,1,1.4,2.24,9.39,9.39,0,0,1,.52,3.35V56.87H41.48V36.44a4,4,0,0,0-.75-2.56A2.63,2.63,0,0,0,38.57,33a2.49,2.49,0,0,0-2.32,1,5.77,5.77,0,0,0-.64,3V56.87Z"/><path class="cls-4" d="M31.5,56.87V15.43h5.94V30.21h.11a8.47,8.47,0,0,1,2.24-2.3,5.81,5.81,0,0,1,3.35-.9,6.8,6.8,0,0,1,2.21.38,5.08,5.08,0,0,1,2,1.25,6.21,6.21,0,0,1,1.4,2.24,9.39,9.39,0,0,1,.52,3.35V56.87H43.32V36.44a4,4,0,0,0-.76-2.56A2.61,2.61,0,0,0,40.41,33a2.49,2.49,0,0,0-2.33,1,5.77,5.77,0,0,0-.64,3V56.87Z"/><path class="cls-2" d="M13.29,25.08V15.43h6.4v9.65h3.95v5H19.69V47.72a5.47,5.47,0,0,0,.22,1.76,1.72,1.72,0,0,0,.72.94,2.66,2.66,0,0,0,1.22.37c.48,0,1.08.06,1.79.06v6H21a8.62,8.62,0,0,1-3.67-.69A6.47,6.47,0,0,1,15,54.43,6.81,6.81,0,0,1,13.7,52a9,9,0,0,1-.41-2.6V30.1h-3.2v-5Z"/><path class="cls-3" d="M15.33,25.08V15.43h6.4v9.65h3.95v5H21.73V47.72A5.47,5.47,0,0,0,22,49.48a1.81,1.81,0,0,0,.72.94,2.66,2.66,0,0,0,1.22.37c.48,0,1.08.06,1.79.06v6H23.05a8.62,8.62,0,0,1-3.67-.69A6.47,6.47,0,0,1,17,54.43,6.81,6.81,0,0,1,15.74,52a9,9,0,0,1-.41-2.6V30.1H12.14v-5Z"/><path class="cls-4" d="M17.17,25.08V15.43h6.39v9.65h4v5h-4V47.72a5.47,5.47,0,0,0,.22,1.76,1.81,1.81,0,0,0,.72.94,2.7,2.7,0,0,0,1.22.37c.48,0,1.08.06,1.79.06v6H24.88a8.62,8.62,0,0,1-3.67-.69,6.47,6.47,0,0,1-2.35-1.75A6.81,6.81,0,0,1,17.57,52a8.94,8.94,0,0,1-.4-2.6V30.1H14v-5Z"/></g></g></svg>
